Sources/FrostedUI/Resources/Icons.xcassets/infoCircleFilled12.imageset/info-circle-filled-12.svg

<svg width="12" height="12" viewBox="0 0 12 12" fill="none" xmlns="http://www.w3.org/2000/svg" data-fui-icon="true">
  <path
    d="M6 0C9.31371 0 12 2.68629 12 6C12 9.31371 9.31371 12 6 12C2.68629 12 0 9.31371 0 6C0 2.68629 2.68629 0 6 0ZM4.96875 4.6543C4.55454 4.6543 4.21875 4.99008 4.21875 5.4043C4.21875 5.81851 4.55454 6.1543 4.96875 6.1543H5.46875V7.6543H4.96875C4.55454 7.6543 4.21875 7.99008 4.21875 8.4043C4.21882 8.81845 4.55458 9.1543 4.96875 9.1543H7.46875C7.88288 9.15424 8.21868 8.81842 8.21875 8.4043C8.21875 7.99012 7.88292 7.65435 7.46875 7.6543H6.96875V5.4043C6.96875 4.99008 6.63296 4.6543 6.21875 4.6543H4.96875ZM5.96875 2.6582C5.55458 2.6582 5.21882 2.99405 5.21875 3.4082C5.21875 3.82242 5.55454 4.1582 5.96875 4.1582C6.38296 4.1582 6.71875 3.82242 6.71875 3.4082C6.71868 2.99405 6.38292 2.6582 5.96875 2.6582Z"
    fill="currentColor"
  />
</svg>

<svg xmlns="http://www.w3.org/2000/svg" width="12" height="12" fill="none" data-fui-icon="true" viewBox="0 0 12 12"><path fill="currentColor" d="M6 0a6 6 0 1 1 0 12A6 6 0 0 1 6 0M4.969 4.654a.75.75 0 1 0 0 1.5h.5v1.5h-.5a.75.75 0 1 0 0 1.5h2.5a.75.75 0 0 0 0-1.5h-.5v-2.25a.75.75 0 0 0-.75-.75zm1-1.996a.75.75 0 1 0 0 1.5.75.75 0 0 0 0-1.5"/></svg>
